src/public/img/google.svg

<svg width="198" height="24" viewBox="0 0 198 24" fill="none" xmlns="http://www.w3.org/2000/svg" xmlns:xlink="http://www.w3.org/1999/xlink">
<g clip-path="url(#clip0)">
<path d="M103.733 4.09244H108.016C112.376 4.09244 115.115 7.00112 115.115 11.0827C115.115 15.1826 112.377 18.073 108.016 18.073H103.733V4.09244ZM108.016 16.354C111.222 16.354 113.276 14.4413 113.276 11.0827C113.276 7.74392 111.222 5.81142 108.016 5.81142H105.531V16.354H108.016ZM116.091 13.2883C116.091 10.5748 117.969 8.19235 120.785 8.19235C123.64 8.19235 125.478 10.2026 125.478 13.2883C125.478 13.4255 125.458 13.6208 125.458 13.6208H117.89C117.987 15.6509 119.454 16.7445 120.941 16.7445C121.996 16.7445 123.052 16.3144 123.561 15.1048L125.165 15.7683C124.598 17.135 123.189 18.3842 120.98 18.3842C118.048 18.3842 116.091 16.1771 116.091 13.2883H116.091ZM120.747 9.832C119.417 9.832 118.36 10.7304 118.009 12.1352H123.562C123.504 11.2963 122.8 9.832 120.747 9.832ZM126.104 8.50502H128.06L130.876 15.9239H130.915L133.771 8.50502H135.687L131.776 18.0715H129.976L126.104 8.50502ZM135.823 13.2883C135.823 10.5748 137.7 8.19235 140.516 8.19235C143.371 8.19235 145.209 10.2026 145.209 13.2883C145.209 13.4255 145.19 13.6208 145.19 13.6208H137.621C137.719 15.6509 139.185 16.7445 140.672 16.7445C141.728 16.7445 142.785 16.3144 143.292 15.1048L144.896 15.7683C144.329 17.135 142.921 18.3842 140.712 18.3842C137.778 18.3842 135.823 16.1771 135.823 13.2883H135.823ZM140.478 9.832C139.147 9.832 138.091 10.7304 137.74 12.1352H143.294C143.236 11.2963 142.531 9.832 140.478 9.832ZM146.658 18.0715V4.09244H148.457V18.0715H146.658ZM159.76 13.2883C159.76 16.1969 157.707 18.3842 154.831 18.3842C151.956 18.3842 149.903 16.1969 149.903 13.2883C149.903 10.3796 151.956 8.19235 154.831 8.19235C157.707 8.19235 159.76 10.3796 159.76 13.2883ZM157.96 13.2883C157.96 11.101 156.436 9.832 154.831 9.832C153.227 9.832 151.702 11.101 151.702 13.2883C151.702 15.4755 153.227 16.7445 154.831 16.7445C156.436 16.7445 157.96 15.4755 157.96 13.2883ZM162.927 16.7445H162.849L162.927 18.0715V22.2888H161.127V8.50502H162.848V9.832H162.926C163.473 8.95345 164.666 8.19235 166.192 8.19235C168.617 8.19235 170.749 10.3597 170.749 13.2883C170.749 16.2168 168.618 18.3842 166.192 18.3842C164.667 18.3842 163.476 17.6231 162.927 16.7445ZM168.951 13.2883C168.951 11.1407 167.504 9.832 165.9 9.832C164.296 9.832 162.849 11.101 162.849 13.2883C162.849 15.4755 164.296 16.7445 165.9 16.7445C167.504 16.7445 168.951 15.4358 168.951 13.2883ZM171.747 13.2883C171.747 10.5748 173.625 8.19235 176.44 8.19235C179.296 8.19235 181.134 10.2026 181.134 13.2883C181.134 13.4255 181.114 13.6208 181.114 13.6208H173.545C173.643 15.6509 175.11 16.7445 176.596 16.7445C177.652 16.7445 178.709 16.3144 179.216 15.1048L180.821 15.7683C180.254 17.135 178.845 18.3842 176.636 18.3842C173.703 18.3842 171.747 16.1771 171.747 13.2883H171.747ZM176.401 9.832C175.071 9.832 174.014 10.7304 173.663 12.1352H179.216C179.158 11.2963 178.454 9.832 176.401 9.832ZM182.581 18.0715V8.50502H184.301V10.0669H184.379C184.77 8.97328 186.159 8.27014 187.156 8.27014C187.743 8.27014 188.134 8.34792 188.505 8.50502L187.821 10.1843C187.567 10.0867 187.254 10.0471 186.863 10.0471C185.632 10.0471 184.379 11.0812 184.379 12.8383V18.0715H182.581ZM189.054 15.6509L190.658 14.9874C191.167 16.1985 192.105 16.7842 193.258 16.7842C194.373 16.7842 195.174 16.2381 195.174 15.4373C195.174 14.9493 194.881 14.4215 193.863 14.1683L191.928 13.7001C191.048 13.485 189.365 12.7239 189.365 11.0446C189.365 9.30731 191.165 8.19387 193.159 8.19387C194.821 8.19387 196.268 8.95498 196.855 10.4192L195.29 11.0629C194.919 10.1645 194.039 9.79388 193.099 9.79388C192.082 9.79388 191.202 10.2423 191.202 11.0232C191.202 11.6288 191.711 11.9597 192.473 12.1367L194.37 12.5851C196.268 13.0335 197.01 14.2049 197.01 15.3763C197.01 17.0755 195.486 18.3826 193.235 18.3826C190.93 18.3842 189.621 17.0175 189.054 15.6509ZM43.5339 18.3842C45.9203 18.3842 47.7185 17.6032 49.1271 16.139C50.5739 14.6945 51.0246 12.6629 51.0246 11.0232C51.0246 10.5153 50.9849 10.0471 50.907 9.6566H43.5339V11.8438H48.7757C48.6199 13.0732 48.2089 13.9716 47.5825 14.5969C46.8201 15.358 45.6269 16.1984 43.5339 16.1984C40.3072 16.1984 37.7848 13.6025 37.7848 10.3796C37.7848 7.15822 40.3072 4.5607 43.5339 4.5607C45.274 4.5607 46.5451 5.24401 47.4847 6.12256L49.0293 4.58052C47.7185 3.33133 45.9783 2.375 43.5339 2.375C39.114 2.375 35.3984 5.96699 35.3984 10.3796C35.3984 14.7922 39.114 18.3842 43.5339 18.3842ZM56.983 8.0749C54.1275 8.0749 51.8007 10.2423 51.8007 13.2288C51.8007 16.1969 54.1275 18.3826 56.983 18.3826C59.8384 18.3826 62.1652 16.1954 62.1652 13.2288C62.1652 10.2423 59.8384 8.0749 56.983 8.0749ZM56.983 16.354C55.4185 16.354 54.0695 15.0652 54.0695 13.2303C54.0695 11.3756 55.4185 10.1066 56.983 10.1066C58.5474 10.1066 59.8964 11.3756 59.8964 13.2303C59.8964 15.0652 58.5474 16.354 56.983 16.354ZM68.2886 8.0749C65.4331 8.0749 63.1063 10.2423 63.1063 13.2288C63.1063 16.1969 65.4331 18.3826 68.2886 18.3826C71.144 18.3826 73.4708 16.1954 73.4708 13.2288C73.4708 10.2423 71.144 8.0749 68.2886 8.0749ZM68.2886 16.354C66.7241 16.354 65.3751 15.0652 65.3751 13.2303C65.3751 11.3756 66.7241 10.1066 68.2886 10.1066C69.853 10.1066 71.202 11.3756 71.202 13.2303C71.202 15.0652 69.853 16.354 68.2886 16.354ZM82.1654 8.38758V9.22647H82.0875C81.5788 8.62094 80.601 8.0749 79.3696 8.0749C76.7876 8.0749 74.4211 10.3399 74.4211 13.2486C74.4211 16.139 76.7876 18.3842 79.3696 18.3842C80.601 18.3842 81.5788 17.8381 82.0875 17.2128H82.1654V17.954C82.1654 19.9262 81.1097 20.9801 79.4078 20.9801C78.019 20.9801 77.1589 19.9842 76.8075 19.1453L74.8321 19.9659C75.3989 21.3325 76.9053 23.0118 79.4078 23.0118C82.0676 23.0118 84.3165 21.4499 84.3165 17.6429V8.38758H82.1654ZM79.5651 16.354C78.0007 16.354 76.6898 15.0454 76.6898 13.2501C76.6898 11.4351 78.0007 10.1066 79.5651 10.1066C81.1097 10.1066 82.3228 11.4335 82.3228 13.2501C82.3212 15.0454 81.1097 16.354 79.5651 16.354ZM88.1497 2.92104H85.881V18.0715H88.1497V2.92104ZM94.3694 16.354C93.2159 16.354 92.3939 15.8263 91.8669 14.7922L98.7709 11.9414L98.5356 11.3557C98.1048 10.2042 96.7955 8.07643 94.1157 8.07643C91.4559 8.07643 89.2467 10.166 89.2467 13.2303C89.2467 16.1191 91.4375 18.3842 94.3709 18.3842C96.7374 18.3842 98.1063 16.9397 98.6731 16.0993L96.9131 14.9279C96.3249 15.7866 95.5228 16.354 94.3694 16.354ZM94.1921 10.0669C95.092 10.0669 95.8544 10.5153 96.108 11.1605L91.4925 13.0732C91.4345 11.0812 93.0387 10.0669 94.1921 10.0669Z" fill="#757575"/>
<path d="M6.34576 0.988281L3.90283 5.21631L7.10048 10.75L12.7411 0.988281H6.34576Z" fill="#DB4437"/>
<rect x="-0.232422" y="3.88672" width="15.4306" height="19.0658" fill="url(#pattern0)"/>
<path d="M1.23544 9.83529C0.908498 10.4012 0.908498 11.0982 1.23544 11.6641L6.34741 20.5106H12.7412L3.90295 5.2168L1.23544 9.83529Z" fill="#4285F4"/>
<path opacity="0.2" d="M1.23506 11.5127C1.08534 11.2519 1.00742 10.9652 0.995197 10.6738C0.981447 11.0155 1.05936 11.3587 1.23506 11.6652L6.34702 20.5118H12.7408L12.6522 20.3592H6.3455L1.23506 11.5127Z" fill="#1A237E"/>
<path opacity="0.2" d="M3.94714 5.2941L6.34576 1.14081H12.6525L12.7411 0.988281H6.34576L3.90283 5.21631L3.94714 5.2941Z" fill="white"/>
<path opacity="0.2" d="M12.6524 0.988281L7.05762 10.6722L7.10039 10.75L12.741 0.988281H12.6524Z" fill="#3E2723"/>
<path opacity="0.2" d="M1.23539 9.98782L3.90443 5.36932L12.6525 20.5121H12.7411L3.9029 5.2168L1.23539 9.83529C1.05817 10.1419 0.98025 10.4851 0.995527 10.8267C1.00622 10.5369 1.08414 10.2486 1.23539 9.98782Z" fill="white"/>
<path d="M3.90771 5.22266L7.10078 10.7502L7.95787 9.26765L3.90771 5.22266Z" fill="url(#paint0_radial)"/>
<path d="M22.5218 20.5117L24.9647 16.2837L21.767 10.75L16.1265 20.5117H22.5218Z" fill="#FFC107"/>
<rect x="14.8921" y="-1.45215" width="15.4306" height="19.0658" fill="url(#pattern1)"/>
<path d="M27.6322 11.6656C27.9591 11.0997 27.9591 10.4026 27.6322 9.83676L22.5202 0.990234H16.1265L24.9647 16.2856L27.6322 11.6656Z" fill="#0F9D58"/>
<path opacity="0.2" d="M27.6322 9.98733C27.7819 10.2481 27.8598 10.5349 27.8721 10.8262C27.8858 10.4846 27.8079 10.1414 27.6322 9.8348L22.5202 0.988281H16.1265L16.2151 1.14081H22.5218L27.6322 9.98733Z" fill="white"/>
<path opacity="0.2" d="M16.2151 20.5117L21.8113 10.8278L21.767 10.75L16.1265 20.5117H16.2151Z" fill="white"/>
<path opacity="0.2" d="M27.6322 11.5126L24.9632 16.1311L16.2151 0.988281H16.1265L24.9647 16.2836L27.6322 11.6651C27.8094 11.3585 27.8873 11.0154 27.8721 10.6737C27.8614 10.9635 27.7835 11.2518 27.6322 11.5126Z" fill="#263238"/>
<path d="M24.9603 16.2776L21.7672 10.75L20.9102 12.2326L24.9603 16.2776Z" fill="url(#paint1_radial)"/>
</g>
<defs>
<pattern id="pattern0" patternContentUnits="objectBoundingBox" width="1" height="1">
<use xlink:href="#image0"/>
</pattern>
<pattern id="pattern1" patternContentUnits="objectBoundingBox" width="1" height="1">
<use xlink:href="#image0"/>
</pattern>
<radialGradient id="paint0_radial" cx="0" cy="0" r="1" gradientUnits="userSpaceOnUse" gradientTransform="translate(3.94339 5.33553) rotate(180) scale(6.28504 6.27467)">
<stop stop-color="#3E2723" stop-opacity="0.2"/>
<stop offset="1" stop-color="#3E2723" stop-opacity="0.02"/>
</radialGradient>
<radialGradient id="paint1_radial" cx="0" cy="0" r="1" gradientUnits="userSpaceOnUse" gradientTransform="translate(24.9247 16.1647) scale(6.28504 6.27467)">
<stop stop-color="#BF360C" stop-opacity="0.2"/>
<stop offset="1" stop-color="#BF360C" stop-opacity="0.02"/>
</radialGradient>
<clipPath id="clip0">
<rect width="198" height="24" fill="white"/>
</clipPath>
<image id="image0" xlink:href="data:image/png;base64,iVBORw0KGgoAAAANSUhEUgAAAGUAAAB9CAYAAAC7+a05AAAACXBIWXMAAAsSAAALEgHS3X78AAAA"/>
</defs>
</svg>

<svg xmlns="http://www.w3.org/2000/svg" xmlns:xlink="http://www.w3.org/1999/xlink" width="198" height="24" fill="none">
  <g clip-path="url(#a)">
    <path fill="#757575" d="M103.733 4.092h4.283c4.36 0 7.099 2.91 7.099 6.99 0 4.1-2.738 6.991-7.099 6.991h-4.283V4.093Zm4.283 12.262c3.206 0 5.26-1.913 5.26-5.271 0-3.34-2.054-5.272-5.26-5.272h-2.485v10.543h2.485Zm8.075-3.066c0-2.713 1.878-5.096 4.694-5.096 2.855 0 4.693 2.01 4.693 5.096 0 .137-.02.333-.02.333h-7.568c.097 2.03 1.564 3.123 3.051 3.123 1.055 0 2.111-.43 2.62-1.64l1.604.664c-.567 1.367-1.976 2.616-4.185 2.616-2.932 0-4.889-2.207-4.889-5.096Zm4.656-3.456c-1.33 0-2.387.898-2.738 2.303h5.553c-.058-.839-.762-2.303-2.815-2.303Zm5.357-1.327h1.956l2.816 7.419h.039l2.856-7.419h1.916l-3.911 9.566h-1.8l-3.872-9.566Zm9.719 4.783c0-2.713 1.877-5.096 4.693-5.096 2.855 0 4.693 2.01 4.693 5.096 0 .137-.019.333-.019.333h-7.569c.098 2.03 1.564 3.123 3.051 3.123 1.056 0 2.113-.43 2.62-1.64l1.604.664c-.567 1.367-1.975 2.616-4.184 2.616-2.934 0-4.889-2.207-4.889-5.096Zm4.655-3.456c-1.331 0-2.387.898-2.738 2.303h5.554c-.058-.839-.763-2.303-2.816-2.303Zm6.18 8.24V4.091h1.799v13.98h-1.799Zm13.102-4.784c0 2.909-2.053 5.096-4.929 5.096-2.875 0-4.928-2.187-4.928-5.096 0-2.908 2.053-5.096 4.928-5.096 2.876 0 4.929 2.188 4.929 5.096Zm-1.8 0c0-2.187-1.524-3.456-3.129-3.456-1.604 0-3.129 1.269-3.129 3.456 0 2.188 1.525 3.456 3.129 3.456 1.605 0 3.129-1.268 3.129-3.456Zm4.967 3.456h-.078l.078 1.328v4.217h-1.8V8.505h1.721v1.327h.078c.547-.879 1.74-1.64 3.266-1.64 2.425 0 4.557 2.168 4.557 5.096 0 2.929-2.131 5.096-4.557 5.096-1.525 0-2.716-.76-3.265-1.64Zm6.024-3.456c0-2.147-1.447-3.456-3.051-3.456s-3.051 1.269-3.051 3.456c0 2.188 1.447 3.456 3.051 3.456s3.051-1.308 3.051-3.456Zm2.796 0c0-2.713 1.878-5.096 4.693-5.096 2.856 0 4.694 2.01 4.694 5.096 0 .137-.02.333-.02.333h-7.569c.098 2.03 1.565 3.123 3.051 3.123 1.056 0 2.113-.43 2.62-1.64l1.605.664c-.567 1.367-1.976 2.616-4.185 2.616-2.933 0-4.889-2.207-4.889-5.096Zm4.654-3.456c-1.33 0-2.387.898-2.738 2.303h5.553c-.058-.839-.762-2.303-2.815-2.303Zm6.18 8.24V8.505h1.72v1.562h.078c.391-1.094 1.78-1.797 2.777-1.797.587 0 .978.078 1.349.235l-.684 1.68c-.254-.098-.567-.138-.958-.138-1.231 0-2.484 1.034-2.484 2.791v5.234h-1.798Zm6.473-2.421 1.604-.664c.509 1.211 1.447 1.797 2.6 1.797 1.115 0 1.916-.546 1.916-1.347 0-.488-.293-1.015-1.311-1.269l-1.935-.468c-.88-.215-2.563-.976-2.563-2.655 0-1.738 1.8-2.851 3.794-2.851 1.662 0 3.109.761 3.696 2.225l-1.565.644c-.371-.899-1.251-1.27-2.191-1.27-1.017 0-1.897.45-1.897 1.23 0 .606.509.937 1.271 1.114l1.897.448c1.898.448 2.64 1.62 2.64 2.791 0 1.7-1.524 3.007-3.775 3.007-2.305.001-3.614-1.366-4.181-2.732Zm-145.52 2.733c2.386 0 4.184-.78 5.593-2.245 1.447-1.444 1.898-3.476 1.898-5.116 0-.508-.04-.976-.118-1.366h-7.373v2.187h5.242c-.156 1.23-.567 2.128-1.194 2.753-.762.761-1.955 1.601-4.048 1.601-3.227 0-5.75-2.596-5.75-5.818 0-3.222 2.523-5.82 5.75-5.82 1.74 0 3.011.684 3.95 1.563L49.03 4.58c-1.31-1.25-3.05-2.206-5.495-2.206-4.42 0-8.136 3.592-8.136 8.005 0 4.412 3.716 8.004 8.136 8.004Zm13.449-10.31c-2.855 0-5.182 2.168-5.182 5.155 0 2.968 2.326 5.154 5.182 5.154 2.855 0 5.182-2.188 5.182-5.154 0-2.987-2.327-5.154-5.182-5.154Zm0 8.28c-1.564 0-2.913-1.289-2.913-3.124 0-1.854 1.349-3.123 2.913-3.123 1.564 0 2.913 1.269 2.913 3.123 0 1.835-1.349 3.124-2.913 3.124Zm11.306-8.28c-2.856 0-5.183 2.168-5.183 5.155 0 2.968 2.327 5.154 5.183 5.154 2.855 0 5.182-2.188 5.182-5.154 0-2.987-2.327-5.154-5.182-5.154Zm0 8.28c-1.565 0-2.914-1.289-2.914-3.124 0-1.854 1.35-3.123 2.914-3.123s2.913 1.269 2.913 3.123c0 1.835-1.349 3.124-2.913 3.124Zm13.876-7.966v.838h-.078c-.508-.605-1.486-1.151-2.717-1.151-2.582 0-4.949 2.265-4.949 5.174 0 2.89 2.367 5.135 4.949 5.135 1.231 0 2.209-.546 2.718-1.171h.077v.741c0 1.972-1.055 3.026-2.757 3.026-1.389 0-2.25-.996-2.6-1.835l-1.976.82c.567 1.367 2.073 3.047 4.576 3.047 2.66 0 4.909-1.562 4.909-5.37V8.389h-2.152Zm-2.6 7.966c-1.564 0-2.875-1.309-2.875-3.104 0-1.815 1.31-3.143 2.875-3.143 1.545 0 2.758 1.327 2.758 3.143-.002 1.795-1.213 3.104-2.758 3.104ZM88.15 2.921h-2.27v15.15h2.269V2.921Zm6.22 13.433c-1.154 0-1.976-.528-2.503-1.562l6.904-2.85-.235-.586c-.431-1.152-1.74-3.28-4.42-3.28-2.66 0-4.87 2.09-4.87 5.154 0 2.89 2.192 5.154 5.125 5.154 2.366 0 3.735-1.444 4.302-2.285l-1.76-1.171c-.588.859-1.39 1.426-2.544 1.426Zm-.178-6.287c.9 0 1.662.448 1.916 1.094l-4.615 1.912c-.058-1.992 1.546-3.006 2.7-3.006Z"/>
    <path fill="#DB4437" d="M6.346.988 3.903 5.216 7.1 10.75 12.741.988H6.346Z"/>
    <path fill="url(#b)" d="M-.232 3.887h15.431v19.066H-.232z"/>
    <path fill="#4285F4" d="M1.235 9.835a1.828 1.828 0 0 0 0 1.83l5.112 8.846h6.394L3.903 5.217 1.235 9.835Z"/>
    <path fill="#1A237E" d="M1.235 11.513a1.831 1.831 0 0 1-.24-.84c-.014.342.064.686.24.992l5.112 8.847h6.394l-.089-.153H6.346l-5.11-8.846Z" opacity=".2"/>
    <path fill="#fff" d="m3.947 5.294 2.399-4.153h6.306l.09-.153H6.345L3.903 5.216l.044.078Z" opacity=".2"/>
    <path fill="#3E2723" d="m12.652.988-5.594 9.684.042.078L12.741.988h-.089Z" opacity=".2"/>
    <path fill="#fff" d="m1.235 9.988 2.67-4.619 8.748 15.143h.088L3.903 5.217 1.235 9.835c-.177.307-.255.65-.24.992a1.8 1.8 0 0 1 .24-.84Z" opacity=".2"/>
    <path fill="url(#c)" d="M3.908 5.223 7.1 10.75l.857-1.482-4.05-4.045Z"/>
    <path fill="#FFC107" d="m22.522 20.512 2.443-4.228-3.198-5.534-5.64 9.762h6.395Z"/>
    <path fill="url(#d)" d="M14.892-1.452h15.431v19.066H14.892z"/>
    <path fill="#0F9D58" d="M27.632 11.666a1.828 1.828 0 0 0 0-1.83L22.52.99h-6.393l8.838 15.296 2.667-4.62Z"/>
    <path fill="#fff" d="M27.632 9.987c.15.261.228.548.24.84a1.84 1.84 0 0 0-.24-.992L22.52.988h-6.393l.088.153h6.307l5.11 8.846ZM16.215 20.512l5.596-9.684-.044-.078-5.64 9.762h.088Z" opacity=".2"/>
    <path fill="#263238" d="m27.632 11.513-2.669 4.618L16.215.988h-.088l8.838 15.296 2.667-4.619c.177-.306.255-.65.24-.991a1.8 1.8 0 0 1-.24.839Z" opacity=".2"/>
    <path fill="url(#e)" d="m24.96 16.278-3.193-5.528-.857 1.483 4.05 4.045Z"/>
  </g>
  <defs>
    <radialGradient id="c" cx="0" cy="0" r="1" gradientTransform="matrix(-6.28504 0 0 -6.27467 3.943 5.336)" gradientUnits="userSpaceOnUse">
      <stop stop-color="#3E2723" stop-opacity=".2"/>
      <stop offset="1" stop-color="#3E2723" stop-opacity=".02"/>
    </radialGradient>
    <radialGradient id="e" cx="0" cy="0" r="1" gradientTransform="matrix(6.28504 0 0 6.27467 24.925 16.165)" gradientUnits="userSpaceOnUse">
      <stop stop-color="#BF360C" stop-opacity=".2"/>
      <stop offset="1" stop-color="#BF360C" stop-opacity=".02"/>
    </radialGradient>
    <pattern id="b" width="1" height="1" patternContentUnits="objectBoundingBox">
      <use xlink:href="#f"/>
    </pattern>
    <pattern id="d" width="1" height="1" patternContentUnits="objectBoundingBox">
      <use xlink:href="#f"/>
    </pattern>
    <clipPath id="a">
      <path fill="#fff" d="M0 0h198v24H0z"/>
    </clipPath>
    <image xlink:href="data:image/png;base64,iVBORw0KGgoAAAANSUhEUgAAAGUAAAB9CAYAAAC7+a05AAAACXBIWXMAAAsSAAALEgHS3X78AAAA" id="f"/>
  </defs>
</svg>
